X: 20484
T: SURRY HORNPIPE
C:
%R: hornpipe, reel
B: Elias Howe "The Musician's Companion" 1843 p.48 #4
S: http://imslp.org/wiki/The_Musician's_Companion_(Howe,_Elias)
Z: 2015 John Chambers <jc:trillian.mit.edu>
M: C|
L: 1/8
K: G
% - - - - - - - - - - - - - - - - - - - - - - - - -
gd |\
B2B2 BdcA | G2GA GABc | dBdB edcB | ABcA GFED |\
B2B2 Bd^ce | d2d2 d2A>G | FA dB AGFE | D2D2D2 :|
|: AB |\
c2cd cBAB | cBAG GFED | DEFG ABcd ecBA GFED |\
e2e2 efge | dBge dBGB | cedc BAGF | G2G2G2 :|
% - - - - - - - - - - - - - - - - - - - - - - - - -

%%sep 1 1 500

